svg/furkot/icomoon/reddit.svg

<svg viewBox="0 0 512 512" xmlns="http://www.w3.org/2000/svg"><path d="m128 320c0-17.664 14.336-32 32-32s32 14.336 32 32-14.336 32-32 32-32-14.336-32-32zm192 0c0-17.664 14.336-32 32-32s32 14.336 32 32-14.336 32-32 32-32-14.336-32-32zm1.568 68.384c8.256-6.496 20.192-5.088 26.688 3.168s5.088 20.192-3.168 26.688c-22.944 18.08-57.92 29.76-89.056 29.76s-66.112-11.68-89.088-29.76c-8.256-6.496-9.664-18.432-3.168-26.688s18.432-9.664 26.688-3.168c13.216 10.4 39.36 21.6 65.568 21.6s52.352-11.2 65.568-21.6zm190.432-132.384c0-35.36-28.64-64-64-64-24.064 0-44.992 13.28-55.936 32.896-32.896-17.984-72.96-29.632-116.64-32.32l38.176-85.76 73.088 21.088c6.592 18.656 24.352 32.064 45.28 32.064 26.496 0 48-21.504 48-48s-21.504-48-48-48c-18.272 0-34.176 10.208-42.272 25.248l-81.44-23.52c-9.12-2.624-18.784 1.856-22.624 10.528l-51.872 116.512c-42.56 3.008-81.632 14.496-113.824 32.128-10.944-19.616-31.872-32.896-55.936-32.896-35.36 0-64 28.64-64 64 0 26.144 15.712 48.64 38.176 58.56-4.032 12-6.176 24.544-6.176 37.44 0 88.352 100.288 160 224 160s224-71.648 224-160c0-12.896-2.144-25.44-6.176-37.44 22.496-9.92 38.176-32.416 38.176-58.56zm-80-161.984c9.952 0 18.016 8.064 18.016 18.016s-8.064 18.016-18.016 18.016-18.016-8.064-18.016-18.016 8.064-18.016 18.016-18.016zm-400 161.984c0-17.632 14.368-32 32-32 12.768 0 23.776 7.488 28.928 18.336-16.736 12.672-30.592 27.328-40.832 43.36-11.776-4.736-20.096-16.256-20.096-29.696zm224 218.016c-102.72 0-186.016-54.624-186.016-122.016s83.264-122.016 186.016-122.016c102.72 0 186.016 54.624 186.016 122.016s-83.264 122.016-186.016 122.016zm203.904-188.32c-10.24-16.064-24.096-30.688-40.832-43.36 5.152-10.816 16.16-18.336 28.928-18.336 17.632 0 32 14.368 32 32 0 13.44-8.32 24.96-20.096 29.696z"/></svg>

<svg xmlns="http://www.w3.org/2000/svg" viewBox="0 0 512 512"><path d="M128 320C128 302.336 142.336 288 160 288S192 302.336 192 320C192 337.664 177.664 352 160 352S128 337.664 128 320ZM320 320C320 302.336 334.336 288 352 288S384 302.336 384 320C384 337.664 369.664 352 352 352S320 337.664 320 320ZM321.568 388.384C329.824 381.888 341.76 383.296 348.256 391.552S353.344 411.744 345.088 418.24C322.144 436.32 287.168 448 256.032 448S189.92 436.32 166.944 418.24C158.688 411.744 157.28 399.808 163.776 391.552S182.208 381.888 190.464 388.384C203.68 398.784 229.824 409.984 256.032 409.984S308.384 398.784 321.6 388.384ZM512 256C512 220.64 483.36 192 448 192 423.936 192 403.008 205.28 392.064 224.896 359.168 206.912 319.104 195.264 275.424 192.576L313.6 106.816 386.688 127.904C393.28 146.56 411.04 159.968 431.968 159.968 458.464 159.968 479.968 138.464 479.968 111.968S458.464 63.968 431.968 63.968C413.696 63.968 397.792 74.176 389.696 89.216L308.256 65.696C299.136 63.072 289.472 67.552 285.632 76.224L233.76 192.736C191.2 195.744 152.128 207.232 119.936 224.864 108.992 205.248 88.064 191.968 64 191.968 28.64 191.968 0 220.608 0 255.968 0 282.112 15.712 304.608 38.176 314.528 34.144 326.528 32 339.072 32 351.968 32 440.32 132.288 511.968 256 511.968S480 440.32 480 351.968C480 339.072 477.856 326.528 473.824 314.528 496.32 304.608 512 282.112 512 255.968ZM432 94.016C441.952 94.016 450.016 102.08 450.016 112.032S441.952 130.048 432 130.048 413.984 121.984 413.984 112.032 422.048 94.016 432 94.016ZM32 256C32 238.368 46.368 224 64 224 76.768 224 87.776 231.488 92.928 242.336 76.192 255.008 62.336 269.664 52.096 285.696 40.32 280.96 32 269.44 32 256ZM256 474.016C153.28 474.016 69.984 419.392 69.984 352S153.248 229.984 256 229.984C358.72 229.984 442.016 284.608 442.016 352S358.752 474.016 256 474.016ZM459.904 285.696C449.664 269.632 435.808 255.008 419.072 242.336 424.224 231.52 435.232 224 448 224 465.632 224 480 238.368 480 256 480 269.44 471.68 280.96 459.904 285.696Z"/></svg>
